X:1
T:Mörike-Lieder
T:Nimmersatte Liebe
T:Nimmersatte Liebe
T:Hugo Wolf
T:Mörike-Lieder
T:Eduard Mörike
T:OpenScore (CC0)
T:OpenScore (CC0)
T:OpenScore (CC0)
T:OpenScore (CC0)
T:OpenScore (CC0)
T:OpenScore (CC0)
C:Hugo Wolf
Z:Eduard Mörike
Z:OpenScore (CC0)
%%score 1 { ( 2 3 ) | ( 4 5 ) }
L:1/8
Q:1/4=40
M:4/8
K:Ab
V:1 treble nm="Voice"
V:2 treble nm="Piano"
V:3 treble 
V:4 bass 
V:5 bass 
V:1
"^Sehr mässig" z | z4 | z4 | z4 | z2 z c | B z/ _F/ F c | B/ z/ _F F c | c c !>!e z/ d/ | %8
w: ||||So|ist die Lieb'! So|ist die Lieb'! Mit|Küs- sen nicht zu|
 A2 G z/ G/ | G =B =d e | =d3/2 c/ c G | B A E F |[Q:1/4=36]"^rit." ^F G z G | %13
w: stil- len: wer|ist der Thor und|will ein  Sieb  mit|ei- tel Was- ser|fül- len? und|
[Q:1/4=40]"^tempo" G A =A B | d3/2 c/ c c | c d =d e | %16
w: schöpfst du an die|tau- send Jahr, und|küs- sest e- wig,|
[Q:1/4=37]"^etwas zurückhaltend" _g3/2 f/ f!p! f | _f3/2!<(! f/ e =d!<)! |!>(! (=fe)!>)! c z | z4 | %20
w: e- wig  gar, du|tust ihr nie zu|Wil- * len.||
 z2 z[Q:1/4=42]"^etwas belebter" B | B z/ B/ =B z/ B/ | =B =e B c |!<(! c3/2 _d/ c =B!<)! | %24
w: Die|Lieb', die Lieb' hat|al- le Stund neu|wun- der- lich Ge-|
!<(! (c>f) f f!<)! |!f! f3/2 _g/ f3/2 g/ | f3/2!>(! d/ B3/2 A/!>)! | %27
w: lü- * sten; wir|bis- sen  uns die|Lip- pen  wund, da|
"^zurückhaltend"[Q:1/4=40] =G A[Q:1/4=38] B d |"^(zart)" (ce) B z/[Q:1/4=44]"^immer erregter" B/ | %29
w: wir uns heu- te|küss- * ten. Das|
 B B B B | =A3/2 d/ d3/2[Q:1/4=45] d/ | c c c c | (=B>e) e z/[Q:1/4=46] e/ | =d3/2 d/ d !>!d | %34
w: Mäd- chen hielt in|gu- ter Ruh', wie's|Lämm- lein un- term|Mes- * ser; ihr|Au- ge bat: nur|
 ^c3/2 f/ f z/[Q:1/4=44] f/ |"^dim." _a2[Q:1/4=41] A G/[Q:1/4=39] A/[Q:1/4=43] | %36
w: im- mer zu, je|we- her des- to|
[Q:1/4=38] _f[Q:1/4=37] e z2[Q:1/4=36] | %37
w: bes- ser!|
 z2"^lang" !fermata!z[Q:1/4=40]"^(Wie zu Anfang)" c[Q:1/4=35][Q:1/4=40] |[Q:1/4=40] B3/2 _F/ F c | %39
w: So|ist die Lieb, und|
 B3/2 _F/ F c |"^(zögernd)"[Q:1/4=38] c (=B/c/)[Q:1/4=37] =d G | %41
w: war auch so, wie|lang es * Lie- be|
[Q:1/4=36] e2 z[Q:1/4=40]"^tempo" =A |"^(mit Humor)" B c d f | =d3/2 e/ e c | e _d E B | %45
w: gibt, und|an- ders war Herr|Sa- lo- mo, der|Wei- se, nicht ver-|
 !fermata!c3[Q:1/4=40]"^tempo" z/ =A/[Q:1/4=37][Q:1/4=34] | !>!B !>!c !>!d !>!g | %47
w: liebt und|an- ders was Herr|
 !>!f3/2 e/ e!p! =E | F c B z/ A/ | A2 z2 | z4 | z4 | z4 | z4 |] %54
w: Sa- lo- mo, der|Wei- se, nicht ver-|liebt.|||||
V:2
!>(! (f- |f!>)!!p!B) z!>(! (f- |fB)!>)! z!p! f | (^F4 | G2-) G/ z/ (([Cc] | %5
 [DB]2-)) [DB]/ z/ (([Cc] | [DB]2-)) [DB]/ z/ [Cc]- | (.[Cc].[Cc])!>(! (_e>!>)!d) | %8
 (([=E_A]2 [EG]))[EG] | [FG]!<(! [G=d]2 [FG]!<)! | [EG] [Ge]2!>(! [Gc] | [Bc] [Aca]2!>)! [Fc] | %12
 [^Fc] [Gg]3 | [G,_DG]"_cresc." [Ee]2 [G,DG] | [D_FB] [Aea]2 [CAc] | [CAc] [Aea]2 [CAc] | %16
 [__B,E__B]!>(! [dad']2!>)! [A,FA] |!pp! [A,=DA] [=da_f']2 [A,DA] | [A,=CA] [ac'a']2 [A,CA] | %19
"^(ausdrucksvoll)"!p! (A>A GA | GF=DB,) |!pp! z/ [GB]/[GB] z/!<(! [^F=A=B]/[FAB]!<)! | %22
 z/ [^G=B]/z/[^^FB]/ z/!<(! [GB]/[GB]/[=G_Bc]/!<)! |!p! z/!<(! [^F=Ac]/[FAc] z/ [GBc]/[GBc]!<)! | %24
 z/!<(! [Ac]/[Ac] z/ [cf]/[cf]!<)! | z/ [Fdf]/[Fcf] z/ [Fdf]/[Fcf] | %26
 z/!>(! [_Gd_g]/[Fdf] z/ [Gd]/[Fd]!>)! |!p! z/ [=Ed]/z/[Fc]/z/[EB]/z/[DA]/ | %28
!pp! z/ [_EA]/z/[=DA]/z/[EG]/z/G,/ | z/[I:staff +1] [_G,B,][G,B,]"_cresc."[G,B,][G,B,]/ | %30
[I:staff -1] z/ [Fdf][Fdf][Fdf][Fdf]/ | z/ [C=E][CE][CE][CE]/ | z/ [G_eg][Geg][Geg][Geg]/ | %33
 z/ [=D^F][DF][DF][DF]/ | z/ [=Af=a][Afa][Afa][Afa]/ | %35
 z/"_dim." [c_f_ac'][cfac'][_cfa_c']"_dim."[cfac']/ |!p! z/!>(! [_c_f_c'][cec']!>)![cec'][cec']/- | %37
!pp! [_ce_c']/[Beb][Beb]!fermata![Beb]!p! (([C=c]/ | [DB]2-)) [DB]/ z/ (([Cc] | %39
 [DB]2-)) [DB]/ z/ ([Cc] | c) =B/c/ =dG |!<(! [_Ge]3 [EG=A]!<)! | Bcdf | =d>e ec | e_d EB | %45
 !arpeggio![CE_G=Ac]4 |!f! [B,FB]!<(![CFc][Dd] [A=Bg]!<)! |!ff! [Ff]>[Ee]!>(! [E=Ae]!p!=E!>)! | %48
 F[_Fc] [EB]3/2 z/ | z (.[CE].[CA])!>(! (f- |f!>)!B) z!>(! (f- |f!>)!B) z!>(! ([Aa]- | %52
 [Aa]!>)!F) z!p! [Dc]/ z/ | [CA]2- [CA] z |] %54
V:3
 F | G2 x F | G2 x F | (CD/) z/ z __E/ z/ | D2- D/ x3/2 | x4 | x4 | x2 (_G=F) | x4 | x4 | x4 | x4 | %12
 x (c=B_B) | x4 | x4 | x4 | x4 | x4 | x4 | z [A,=D]2 [A,D] | x4 | x4 | x4 | x4 | x4 | x4 | x4 | %27
 x4 | x4 | x4 | x4 | x4 | x/ [_E=B][EB][EB][EB]/ | x4 | x4 | x4 | x4 | x4 | x4 | x4 | %40
 [C^F][CF] =FF | x4 | F F2 G | z [EA]2 E | z DED | x4 | x4 | [Ac]2 x2 | x4 | x3 F | G2 x F | %51
 G2 x2 | x4 | x4 |] %54
V:4
 .[A,=D] | [_DE]2 z .[A,=D] | [_DE]2 z .[A,=D] | (!>!=A,B,/) z/ z _C/ z/ |!p! B,2- B,/ z/!>(! E, | %5
 _F,!>)!_F- F/ z/!>(! E, |_F,_F-!>)! F/ z/ [A,,E,]- |!<(! (.[A,,E,].[A,,=E,])!<)! (=A,B,) | %8
 B,C- CB, | [=D,=B,] [D,F,B,]2 [G,B,] | [E,G,=D] [E,G,C]2 [=E,B,C] | [F,C] [F,C]2 [A,=D] | %12
"^rit." [G,E] [G,=D]2 [G,D] | [E,,B,,E,] [E,B,D]2 [E,,B,,E,] | [A,,G,] [A,E]2 [A,,E,] | %15
 [_G,,E,_G,] [G,E_G]2 [G,,E,G,] |!ff! [D,,__B,,D,] [A,DA]2 [D,,A,,D,] | %17
 [_F,,_C,_F,][K:treble] [_F_c]2[K:bass] [_F,_C] | [E,,A,,E,][K:treble] [EAe]2[K:bass] [E,,A,,E,] | %19
 z [_F,_C]2 [F,C] | z [=D,A,]2 [D,A,] | z/ E/E z/ ^D/D | z/ =E/z/E/ z/ E/E/E/ | z/ ^D/D z/ =E/E | %24
 z/ F/F[K:treble] z/ [DA]/[DA] |!f! z/ [=A,E=A]/[A,EA] z/ [A,EA]/[A,EA] | %26
 z/ [B,DB]/[B,DB] z/ [B,D]/[B,D] |[K:bass] z/ [B,D]/z/[A,C]/z/[G,B,]/z/[_F,B,]/ | %28
 z/ [E,C]/z/[E,_C]/z/[E,B,]/z/[E,B,]/ | z/ [_G,,D,][G,,D,][G,,D,][G,,D,]/ | %30
[K:treble] z/ [=A,D=A][A,DA][A,DA][A,DA]/ |[K:bass] z/ [^G,,C,=E,][G,,C,E,][G,,C,E,][G,,C,E,]/ | %32
 z/ =B,B,B,B,/ | z/ [_B,,=D,_B,][B,,D,B,][B,,D,B,][B,,D,B,]/ | %34
 z/[I:staff -1] [_DF_d][DFd][DFd][DFd]/ | %35
!f![I:staff +1] z/[I:staff -1] [_A,_F_A][A,FA][A,FA][A,FA]/ | %36
[I:staff +1][K:treble] z/ [DG][DG][DG][DG]/- | [DG]/[DG][DG]!fermata![DG][K:bass]!>(! E,/ | %38
_F,_F-!>)! F/ z/!>(! E, |_F,_F-!>)! F/ z/ [A,,E,] | [A,E][A,E] [G,=B,][G,B,] | A,2 =A,C | %42
!p! z [B,D]2 [B,D] | z [A,C]2 _G, | z [F,B,] z [E,G,] | %45
 (3(!>!_G,,/=A,,/"^rit."C,/(3E,/_G,/=A,/ !>!C/)!<(![I:staff -1]!>!E/!>!_G/!>!=A/!<)! | %46
[I:staff +1] D, [D,F,D]2 [A,,=D,] | [A,,E,][E,A,C] [_G,=A,C]2 | [D,_A,]2 [E,G,D]3/2 z/ | %49
 z (.[A,,E,].[A,,E,]) .[A,=D] | [_DE]2 z .[A,=D] | [_DE]2[K:treble] z [=DF=d]/ z/ | %52
 [E_B_d]/ z/ z[K:bass] z [E,G,]/ z/ | [A,,E,A,]2- [A,,E,A,] z |] %54
V:5
 x | x4 | x4 | E,4- | E,2- E,/ x/ A,,- | A,,2- A,,/ x/ A,,- | A,,2- A,,/ x3/2 | x2 D,2 | %8
 C,2- C,^C, | x4 | x4 | x4 | x4 | x4 | x4 | x4 | x4 | x[K:treble] x2[K:bass] x | %18
 x[K:treble] x2[K:bass] x | _C,4 | B,,4 | x4 | x4 | x4 | x2[K:treble] x2 | x4 | x4 |[K:bass] x4 | %28
 x4 | x4 |[K:treble] x4 |[K:bass] x/ ^G,G,G,G,/ | x4 | x/ ^F,F,F,F,/ | x4 | x4 |[K:treble] x4 | %37
 x7/2[K:bass] A,,/ | A,,2- A,,/ x/ A,, | A,,2- A,,/ x3/2 | x4 | C,4 | D,4 | C,3 =A,, | B,,2 E,,2 | %45
 x4 | D,,3 =D,, | E,,4 | x4 | x4 | x4 | x2[K:treble] x2 | x2[K:bass] x2 | x4 |] %54

